X:83
T:One for Dan
R:rant or march
C:Dave Whetstone
M:4/4
L:1/8
Q:1/8=200
K:G
d |: GB.g e dB.ed | GB .ge dB.ed | .c c .A .c .B B .G .B | .AB .cd AA A. B |
GB.g e dB.ed | GB .ge dB.ed | .c c .A .c .B B .G .B | .AB .cA GG G.G :|
: 3df/2 e/2 3d d/2 d/2 | 2e 2f 3g g/2 g/2 | f/2 e/2 3d e/2 d/2 3c | d/2 c/2
B/2 c/2 2AA/2 B/2 |
3c c/2 c/2 .3B G/2 B/2 | A/2 B/2 c/2 d/2 A A/2 A/2 | B B/2 c/2 d/2 c/2 B/2
A/2 G/2 g/2 g/2 g/2 g d :|

